_site/images/favicon.svg

<svg fill="none" height="152" viewBox="0 0 152 152" width="152" xmlns="http://www.w3.org/2000/svg"><path d="m0 0h152v152h-152z" fill="#1d1e21"/><path d="m96.696 49c-7.384 0-13.52 4.264-17.056 10.504l-.312-.624c-3.328-6.656-9.36-9.88-16.224-9.88-6.032 0-11.544 2.808-15.184 7.28v-6.656h-10.92v53.664h10.92v-31.824c0-6.448 5.2-11.752 11.544-11.752s11.544 5.304 11.544 11.752v31.824h10.816v-31.824c0-6.448 5.096-11.752 11.544-11.752 6.344 0 11.544 5.304 11.544 11.752v31.824h10.816v-32.656c0-13.936-8.944-21.632-19.032-21.632z" fill="#fff"/></svg>

<svg width="152" height="152" viewBox="0 0 152 152" fill="none" xmlns="http://www.w3.org/2000/svg">
<rect width="152" height="152" fill="#1D1E21"/>
<path d="M96.696 49C89.312 49 83.176 53.264 79.64 59.504L79.328 58.88C76 52.224 69.968 49 63.104 49C57.072 49 51.56 51.808 47.92 56.28V49.624H37V103.288H47.92V71.464C47.92 65.016 53.12 59.712 59.464 59.712C65.808 59.712 71.008 65.016 71.008 71.464V103.288H81.824V71.464C81.824 65.016 86.92 59.712 93.368 59.712C99.712 59.712 104.912 65.016 104.912 71.464V103.288H115.728V70.632C115.728 56.696 106.784 49 96.696 49Z" fill="white"/>
</svg>
